assets/Down-left arrow/Flat/down-left_arrow_flat.svg

<svg width="32" height="32" viewBox="0 0 32 32" fill="none" xmlns="http://www.w3.org/2000/svg">
<path d="M2 6C2 3.79086 3.79086 2 6 2H26C28.2091 2 30 3.79086 30 6V26C30 28.2091 28.2091 30 26 30H6C3.79086 30 2 28.2091 2 26V6Z" fill="#00A6ED"/>
<path d="M8.00001 22.2462C7.99788 22.6634 8.33663 23.0021 8.75383 23L16.0467 22.9628C16.713 22.9594 17.0444 22.1536 16.5732 21.6825L14.6566 19.7659C14.5297 19.6389 14.5756 19.4176 14.7057 19.2939C14.7119 19.2881 14.718 19.2821 14.7241 19.276L22.3098 11.6902C22.7004 11.2997 22.7004 10.6665 22.3098 10.276L20.7241 8.69023C20.3335 8.29971 19.7004 8.29971 19.3098 8.69023L11.7241 16.276C11.718 16.2821 11.712 16.2882 11.7061 16.2944C11.5824 16.4245 11.3611 16.4704 11.2342 16.3434L9.31755 14.4268C8.84638 13.9556 8.04063 14.287 8.03723 14.9533L8.00001 22.2462Z" fill="white"/>
</svg>

<svg xmlns="http://www.w3.org/2000/svg" width="32" height="32" fill="none"><path fill="#00A6ED" d="M2 6a4 4 0 0 1 4-4h20a4 4 0 0 1 4 4v20a4 4 0 0 1-4 4H6a4 4 0 0 1-4-4V6Z"/><path fill="#fff" d="M8 22.246a.75.75 0 0 0 .754.754l7.293-.037a.75.75 0 0 0 .526-1.28l-1.916-1.917c-.127-.127-.081-.348.049-.472a.771.771 0 0 0 .018-.018l7.586-7.586a1 1 0 0 0 0-1.414L20.724 8.69a1 1 0 0 0-1.414 0l-7.586 7.586a1.037 1.037 0 0 0-.018.018c-.124.13-.345.176-.472.05l-1.916-1.917a.75.75 0 0 0-1.28.526L8 22.246Z"/></svg>
